packages/synapse-interface/assets/icons/crvusd.svg

<svg fill="none" height="48" viewBox="0 0 48 48" width="48" xmlns="http://www.w3.org/2000/svg" xmlns:xlink="http://www.w3.org/1999/xlink"><linearGradient id="a" gradientUnits="userSpaceOnUse" x1="19.079" x2="44.269" y1="1.935" y2="17.758"><stop offset=".339" stop-color="#ff7301"/><stop offset=".948" stop-color="#ffdd01"/></linearGradient><linearGradient id="b" gradientUnits="userSpaceOnUse" x1="31.473" x2="45.754" y1="6.133" y2="17.597"><stop offset="0" stop-color="#ff8101"/><stop offset="1" stop-color="#ffe601"/></linearGradient><linearGradient id="c" gradientUnits="userSpaceOnUse" x1="1.489" x2="-3.523" y1="22.589" y2="37.103"><stop offset="0" stop-color="#ff9100"/><stop offset=".314" stop-color="#d4ff23"/><stop offset=".49" stop-color="#87ff70"/><stop offset=".688" stop-color="#1cffdb"/><stop offset="1" stop-color="#00beff"/></linearGradient><linearGradient id="d" gradientUnits="userSpaceOnUse" x1="23.28" x2="30.782" y1="2.074" y2="5.228"><stop offset="0" stop-color="#ff4e00"/><stop offset="1" stop-color="#ff7300"/></linearGradient><linearGradient id="e" gradientUnits="userSpaceOnUse" x1="19.993" x2="26.495" y1="5.185" y2="6.087"><stop offset="0" stop-color="#fa0f00"/><stop offset="1" stop-color="#ff6e01"/></linearGradient><linearGradient id="f" gradientUnits="userSpaceOnUse" x1="9.269" x2="13.685" y1="6.259" y2="17.991"><stop offset="0" stop-color="#a80000"/><stop offset="1" stop-color="#fa0f01"/></linearGradient><linearGradient id="g" gradientUnits="userSpaceOnUse" x1="33.019" x2="36.08" y1="21.682" y2="33.542"><stop offset="0" stop-color="#ffe600"/><stop offset=".469" stop-color="#7aff7d"/><stop offset=".891" stop-color="#1cffdb"/><stop offset="1" stop-color="#00dcfe"/></linearGradient><linearGradient id="h" gradientUnits="userSpaceOnUse" x1="30.302" x2="29.075" y1="16.955" y2="22.676"><stop offset="0" stop-color="#f1fc06"/><stop offset=".469" stop-color="#7aff7d"/><stop offset="1" stop-color="#1cffdb"/></linearGradient><linearGradient id="i" gradientUnits="userSpaceOnUse" x1="23.943" x2="33.682" y1="11.81" y2="23.162"><stop offset="0" stop-color="#ffc100"/><stop offset="1" stop-color="#f1fc06"/></linearGradient><linearGradient id="j" gradientUnits="userSpaceOnUse" x1="43.446" x2="43.446" y1="16.97" y2="19.933"><stop offset="0" stop-color="#ffd701"/><stop offset="1" stop-color="#ffe601"/></linearGradient><linearGradient id="k" gradientUnits="userSpaceOnUse" x1="9.231" x2="13.455" y1="22.979" y2="43.32"><stop offset="0" stop-color="#ffa300"/><stop offset=".214" stop-color="#deff19"/><stop offset=".464" stop-color="#a4ff53"/><stop offset=".688" stop-color="#36ffc1"/><stop offset=".865" stop-color="#00a0ff"/><stop offset=".974" stop-color="#0064ff"/></linearGradient><linearGradient id="l" gradientUnits="userSpaceOnUse" x1="7.769" x2="23.62" y1="23.48" y2="24.559"><stop offset="0" stop-color="#ff8a01"/><stop offset="1" stop-color="#ffdb00"/></linearGradient><linearGradient id="m" gradientUnits="userSpaceOnUse" x1="15.334" x2="15.145" y1="28.847" y2="20.573"><stop offset="0" stop-color="#dffd18"/><stop offset="1" stop-color="#fdad12"/></linearGradient><linearGradient id="n" gradientUnits="userSpaceOnUse" x1="20.073" x2="14.298" y1="40.445" y2="46.054"><stop offset="0" stop-color="#14f3e6"/><stop offset="1" stop-color="#0040ff"/></linearGradient><linearGradient id="o" gradientUnits="userSpaceOnUse" x1="7.176" x2="13.071" y1="37.923" y2="41.701"><stop offset="0" stop-color="#09d3f3"/><stop offset="1" stop-color="#0001fc" stop-opacity="0"/></linearGradient><linearGradient id="p" gradientUnits="userSpaceOnUse" x1="19.545" x2="23.782" y1="25.095" y2="42.618"><stop offset="0" stop-color="#ff9100"/><stop offset=".314" stop-color="#d4ff23"/><stop offset=".49" stop-color="#87ff70"/><stop offset=".688" stop-color="#1cffdb"/><stop offset="1" stop-color="#00d8ff"/></linearGradient><linearGradient id="q" gradientUnits="userSpaceOnUse" x1="6.827" x2="8.661" y1="22.822" y2="25.973"><stop offset="0" stop-color="#ff4e01"/><stop offset="1" stop-color="#f4bb0c"/></linearGradient><path d="m46.6473 24.3866c-2.7297 7.0509-14.3937 9.1086-26.0527 4.5954-10.98943-4.2531-21.125004-21.62782-7.421-27.3853 4.8657-1.093891 11.0855-.55579 17.3053 1.85179 11.6589 4.512 18.8968 13.88721 16.1684 20.93811z" fill="url(#a)"/><path d="m33.1655 6.1794c-2.683-.49263-2.8598 2.95958-2.4922 4.8884 7.1495 2.8232 9.5431 7.0257 9.72 7.291 3.2665-2.7802 6.5911.3259 6.888 2.6993-.355-7.7027-10.4653-14.2067-14.1158-14.8787z" fill="url(#b)"/><path d="m6.26904 36.917c-1.87453-5.7701-.15411-10.8505.94105-12.6694-.98274-4.5537-2.82568-13.6977-2.88379-13.6409-3.23621 11.3861-.31074 22.4249 1.62442 26.496z" fill="url(#c)"/><path d="m4.04582 11.9746c.27032-2.17512 1.63453-4.79112 2.50232-5.99997l15.49386-4.67873c15.8767 2.63242 12.1731 9.0758.3916 7.96674-3.629-.34106-1.8783 3.03156-1.6648 6.14906.9827 6.6189-.5116 7.3895-2.8181 10.805-.811-1.6661-2.6059-4.8252-5.808-5.04-2.56298-.1705-5.05267 3.0746-5.59456 4.2695-.14274-.1276-.624-2.2888-.89684-3.1768-1.42105-2.9634-2.08926-6.3941-1.60421-10.2948z" fill="url(#d)"/><path d="m5.76643 11.8509c-.44589-1.92888-.18568-3.65309 0-4.2733.44464-1.69263 2.66653-5.28758 7.99827-6.12632 5.3318-.837471 10.1053-.13137 11.8257.79958 1.6346 1.09768.9285 4.43369-2.3949 3.49263-4.8392-1.39705-5.5882.44842-5.1891 2.99369 1.0775 5.62862.4485 9.39792 0 10.57772 0 0-1.4475 3.6429-2.645 2.496-2.0463-2.0464-3.9411-1.6472-6.03791-1.099-1.67621.4396-2.18021-.7478-2.22316-1.397-.25895-1.6838-.88674-5.5339-1.3339-7.464z" fill="url(#e)"/><path d="m10.4565 2.44801c-3.8021 1.81137-2.42779 8.89139-1.24295 12.39159 1.29225-.8084 5.24845-.4863 6.45975.8059-1.8088-10.27202 2.467-14.3836 3.7592-14.30275 0 0-2.1234-.22737-3.6-.10232-1.7709.10105-3.6783.39789-5.376 1.20758z" fill="url(#f)"/><path d="m40.5688 18.2122c-3.0063 3.3524-12.8299 4.7255-17.3646 4.9933.9448 4.5347.0871 11.4391-.4598 14.3242 5.8446-1.8468 18.0076-5.6362 19.896-6.0215 2.3608-.4825 5.2509-4.1912 4.7697-9.5874-.4813-5.3949-4.9137-5.7322-6.8413-3.7086z" fill="url(#g)"/><path d="m20.9141 14.2358c-.7137.3007 1.6232 6.1352 2.3786 9.0531 11.7347-.8779 15.6442-3.7882 15.6922-3.7882-6.5798-5.4518-17.1777-5.6413-18.0708-5.2649z" fill="url(#h)"/><path d="m40.4186 18.4079c-1.7482-6.5773-18.0632-10.14318-19.7368-8.98739-1.0005.68969-.5925 3.35749 0 4.86059 8.0867-.792 15.6707 3.1617 18.2235 5.1853.4017-.0947 1.3643-.8236 1.5133-1.0585z" fill="url(#i)"/><path d="m43.0458 19.7683c-3.4068.648-3.1225-.7806-2.5554-1.5751 1.8063-2.2143 4.8973-.9221 6.2173 0 .1996.2551-.2552.9284-3.6619 1.5751z" fill="url(#j)"/><path d="m13.4549 43.3213c3.951-.3103 6.7655-5.5086 6.2864-11.6108-.4792-6.1021-4.0706-10.7974-8.0216-10.4871-3.95108.3102-6.76558 5.5085-6.2864 11.6107.47918 6.1021 4.07058 10.7974 8.0216 10.4872z" fill="url(#k)"/><path d="m11.5896 26.1991c-2.3874.4421-4.36045-.307-5.04761-.7364.65053-1.3137 2.34948-4.1659 5.56421-4.3857 2.904-.1983 4.7621 2.1461 5.5983 3.9158-1.2164-.0986-3.7263.7642-6.1137 1.2063z" fill="url(#l)"/><path d="m11.5896 26.1991c-2.3874.4421-4.36045-.307-5.04761-.7364.65053-1.3137 2.34948-4.1659 5.56421-4.3857 2.904-.1983 4.7621 2.1461 5.5983 3.9158-1.2164-.0986-3.7263.7642-6.1137 1.2063z" fill="url(#m)" fill-opacity=".5"/><path d="m15.1995 46.5298c4.0888.0909 6.6909-5.275 7.4804-7.9693l-3.8716-.3006c-.3512 1.5663-2.1373 4.5827-5.4935 4.9667-3.5646.408-6.2185-4.0737-7.0446-6.3284-.09258.0907-.20701.156-.33221.1895 1.0901 3.3852 4.14821 9.3297 9.26151 9.4421z" fill="url(#n)"/><path d="m15.1995 46.5298c4.0888.0909 6.6909-5.275 7.4804-7.9693l-3.8716-.3006c-.3512 1.5663-2.1373 4.5827-5.4935 4.9667-3.5646.408-6.2185-4.0737-7.0446-6.3284-.09258.0907-.20701.156-.33221.1895 1.0901 3.3852 4.14821 9.3297 9.26151 9.4421z" fill="url(#o)"/><path d="m20.1726 12.7491c1.8392 5.933-.4736 11.112-2.0059 13.1141 2.4026 5.5882.6619 11.0993.6619 12.6657 0 1.5675 3.3436 1.1494 3.8653 0 1.9288-5.9836 1.8215-16.5904-2.52-25.7811z" fill="url(#p)"/><path d="m7.83159 25.9731-1.22905-.5002c.34105-1.0624 2.03242-4.2203 5.43786-4.3933-1.0774.3095-3.73639 2.8143-4.20755 4.8935z" fill="url(#q)"/><path d="m12.3246 26.0817c-2.55159.6795-4.8417-.0695-5.6678-.528-.69726 1.2669-.97895 2.7158-1.03326 3.2816 3.54315 1.0649 9.96636-1.1936 12.73646-2.4555l-.6443-1.3769c-.7326.0758-2.8395.3992-5.3911 1.0788z" fill="#f4ba0c" opacity=".3"/></svg>

<svg width="48" height="48" viewBox="0 0 48 48" fill="none" xmlns="http://www.w3.org/2000/svg">
<path d="M46.6473 24.3866C43.9176 31.4375 32.2536 33.4952 20.5946 28.982C9.60517 24.7289 -0.530404 7.35418 13.1736 1.5967C18.0393 0.502809 24.2591 1.04091 30.4789 3.44849C42.1378 7.96049 49.3757 17.3357 46.6473 24.3866Z" fill="url(#paint0_linear_1550_1580)"/>
<path d="M33.1655 6.1794C30.4825 5.68677 30.3057 9.13898 30.6733 11.0678C37.8228 13.891 40.2164 18.0935 40.3933 18.3588C43.6598 15.5786 46.9844 18.6847 47.2813 21.0581C46.9263 13.3554 36.816 6.8514 33.1655 6.1794Z" fill="url(#paint1_linear_1550_1580)"/>
<path d="M6.26904 36.917C4.39451 31.1469 6.11493 26.0665 7.21009 24.2476C6.22735 19.6939 4.38441 10.5499 4.3263 10.6067C1.09009 21.9928 4.01556 33.0316 5.95072 37.1027L6.26904 36.917Z" fill="url(#paint2_linear_1550_1580)"/>
<path d="M4.04582 11.9746C4.31614 9.79948 5.68035 7.18348 6.54814 5.97463L22.042 1.2959C37.9187 3.92832 34.2151 10.3717 22.4336 9.26264C18.8046 8.92158 20.5553 12.2942 20.7688 15.4117C21.7515 22.0306 20.2572 22.8012 17.9507 26.2167C17.1397 24.5506 15.3448 21.3915 12.1427 21.1767C9.57972 21.0062 7.09003 24.2513 6.54814 25.4462C6.4054 25.3186 5.92414 23.1574 5.6513 22.2694C4.23025 19.306 3.56204 15.8753 4.04709 11.9746H4.04582Z" fill="url(#paint3_linear_1550_1580)"/>
<path d="M5.76643 11.8509C5.32054 9.92202 5.58075 8.19781 5.76643 7.5776C6.21107 5.88497 8.43296 2.29002 13.7647 1.45128C19.0965 0.613809 23.87 1.31991 25.5904 2.25086C27.225 3.34854 26.5189 6.68455 23.1955 5.74349C18.3563 4.34644 17.6073 6.19191 18.0064 8.73718C19.0839 14.3658 18.4549 18.1351 18.0064 19.3149C18.0064 19.3149 16.5589 22.9578 15.3614 21.8109C13.3151 19.7645 11.4203 20.1637 9.32349 20.7119C7.64728 21.1515 7.14328 19.9641 7.10033 19.3149C6.84138 17.6311 6.21359 13.781 5.76643 11.8509Z" fill="url(#paint4_linear_1550_1580)"/>
<path d="M10.4565 2.44801C6.6544 4.25938 8.02871 11.3394 9.21355 14.8396C10.5058 14.0312 14.462 14.3533 15.6733 15.6455C13.8645 5.37348 18.1403 1.2619 19.4325 1.34275C19.4325 1.34275 17.3091 1.11538 15.8325 1.24043C14.0616 1.34148 12.1542 1.63832 10.4565 2.44801Z" fill="url(#paint5_linear_1550_1580)"/>
<path d="M40.5688 18.2122C37.5625 21.5646 27.7389 22.9377 23.2042 23.2055C24.149 27.7402 23.2913 34.6446 22.7444 37.5297C28.589 35.6829 40.752 31.8935 42.6404 31.5082C45.0012 31.0257 47.8913 27.317 47.4101 21.9208C46.9288 16.5259 42.4964 16.1886 40.5688 18.2122Z" fill="url(#paint6_linear_1550_1580)"/>
<path d="M20.9141 14.2358C20.2004 14.5365 22.5373 20.371 23.2927 23.2889C35.0274 22.411 38.9369 19.5007 38.9849 19.5007C32.4051 14.0489 21.8072 13.8594 20.9141 14.2358Z" fill="url(#paint7_linear_1550_1580)"/>
<path d="M40.4186 18.4079C38.6704 11.8306 22.3554 8.26472 20.6818 9.42051C19.6813 10.1102 20.0893 12.778 20.6818 14.2811C28.7685 13.4891 36.3525 17.4428 38.9053 19.4664C39.307 19.3717 40.2696 18.6428 40.4186 18.4079Z" fill="url(#paint8_linear_1550_1580)"/>
<path d="M43.0458 19.7683C39.639 20.4163 39.9233 18.9877 40.4904 18.1932C42.2967 15.9789 45.3877 17.2711 46.7077 18.1932C46.9073 18.4483 46.4525 19.1216 43.0458 19.7683Z" fill="url(#paint9_linear_1550_1580)"/>
<path d="M13.4549 43.3213C17.4059 43.011 20.2204 37.8127 19.7413 31.7105C19.2621 25.6084 15.6707 20.9131 11.7197 21.2234C7.76862 21.5336 4.95412 26.7319 5.4333 32.8341C5.91248 38.9362 9.50388 43.6315 13.4549 43.3213Z" fill="url(#paint10_linear_1550_1580)"/>
<path d="M11.5896 26.1991C9.2022 26.6412 7.22915 25.8921 6.54199 25.4627C7.19252 24.149 8.89147 21.2968 12.1062 21.077C15.0102 20.8787 16.8683 23.2231 17.7045 24.9928C16.4881 24.8942 13.9782 25.757 11.5908 26.1991H11.5896Z" fill="url(#paint11_linear_1550_1580)"/>
<path d="M11.5896 26.1991C9.2022 26.6412 7.22915 25.8921 6.54199 25.4627C7.19252 24.149 8.89147 21.2968 12.1062 21.077C15.0102 20.8787 16.8683 23.2231 17.7045 24.9928C16.4881 24.8942 13.9782 25.757 11.5908 26.1991H11.5896Z" fill="url(#paint12_linear_1550_1580)" fill-opacity="0.5"/>
<path d="M15.1995 46.5298C19.2883 46.6207 21.8904 41.2548 22.6799 38.5605L18.8083 38.2599C18.4571 39.8262 16.671 42.8426 13.3148 43.2266C9.7502 43.6346 7.0963 39.1529 6.2702 36.8982C6.17762 36.9889 6.06319 37.0542 5.93799 37.0877C7.02809 40.4729 10.0862 46.4174 15.1995 46.5298Z" fill="url(#paint13_linear_1550_1580)"/>
<path d="M15.1995 46.5298C19.2883 46.6207 21.8904 41.2548 22.6799 38.5605L18.8083 38.2599C18.4571 39.8262 16.671 42.8426 13.3148 43.2266C9.7502 43.6346 7.0963 39.1529 6.2702 36.8982C6.17762 36.9889 6.06319 37.0542 5.93799 37.0877C7.02809 40.4729 10.0862 46.4174 15.1995 46.5298Z" fill="url(#paint14_linear_1550_1580)"/>
<path d="M20.1726 12.7491C22.0118 18.6821 19.699 23.8611 18.1667 25.8632C20.5693 31.4514 18.8286 36.9625 18.8286 38.5289C18.8286 40.0964 22.1722 39.6783 22.6939 38.5289C24.6227 32.5453 24.5154 21.9385 20.1739 12.7478L20.1726 12.7491Z" fill="url(#paint15_linear_1550_1580)"/>
<path d="M7.83159 25.9731L6.60254 25.4729C6.94359 24.4105 8.63496 21.2526 12.0404 21.0796C10.963 21.3891 8.30401 23.8939 7.83285 25.9731H7.83159Z" fill="url(#paint16_linear_1550_1580)"/>
<path opacity="0.3" d="M12.3246 26.0817C9.77301 26.7612 7.4829 26.0122 6.6568 25.5537C5.95954 26.8206 5.67785 28.2695 5.62354 28.8353C9.16669 29.9002 15.5899 27.6417 18.36 26.3798L17.7157 25.0029C16.9831 25.0787 14.8762 25.4021 12.3246 26.0817Z" fill="#F4BA0C"/>
<defs>
<linearGradient id="paint0_linear_1550_1580" x1="19.0789" y1="1.93523" x2="44.2688" y2="17.7575" gradientUnits="userSpaceOnUse">
<stop offset="0.339" stop-color="#FF7301"/>
<stop offset="0.948" stop-color="#FFDD01"/>
</linearGradient>
<linearGradient id="paint1_linear_1550_1580" x1="31.4729" y1="6.13267" x2="45.7541" y2="17.5971" gradientUnits="userSpaceOnUse">
<stop stop-color="#FF8101"/>
<stop offset="1" stop-color="#FFE601"/>
</linearGradient>
<linearGradient id="paint2_linear_1550_1580" x1="1.48925" y1="22.589" x2="-3.52296" y2="37.1027" gradientUnits="userSpaceOnUse">
<stop stop-color="#FF9100"/>
<stop offset="0.314" stop-color="#D4FF23"/>
<stop offset="0.49" stop-color="#87FF70"/>
<stop offset="0.688" stop-color="#1CFFDB"/>
<stop offset="1" stop-color="#00BEFF"/>
</linearGradient>
<linearGradient id="paint3_linear_1550_1580" x1="23.2799" y1="2.074" x2="30.7818" y2="5.22811" gradientUnits="userSpaceOnUse">
<stop stop-color="#FF4E00"/>
<stop offset="1" stop-color="#FF7300"/>
</linearGradient>
<linearGradient id="paint4_linear_1550_1580" x1="19.9934" y1="5.18518" x2="26.4949" y2="6.08707" gradientUnits="userSpaceOnUse">
<stop stop-color="#FA0F00"/>
<stop offset="1" stop-color="#FF6E01"/>
</linearGradient>
<linearGradient id="paint5_linear_1550_1580" x1="9.26913" y1="6.25896" x2="13.6851" y2="17.9912" gradientUnits="userSpaceOnUse">
<stop stop-color="#A80000"/>
<stop offset="1" stop-color="#FA0F01"/>
</linearGradient>
<linearGradient id="paint6_linear_1550_1580" x1="33.0189" y1="21.6821" x2="36.0795" y2="33.5419" gradientUnits="userSpaceOnUse">
<stop stop-color="#FFE600"/>
<stop offset="0.469" stop-color="#7AFF7D"/>
<stop offset="0.891" stop-color="#1CFFDB"/>
<stop offset="1" stop-color="#00DCFE"/>
</linearGradient>
<linearGradient id="paint7_linear_1550_1580" x1="30.3019" y1="16.9554" x2="29.0754" y2="22.6763" gradientUnits="userSpaceOnUse">
<stop stop-color="#F1FC06"/>
<stop offset="0.469" stop-color="#7AFF7D"/>
<stop offset="1" stop-color="#1CFFDB"/>
</linearGradient>
<linearGradient id="paint8_linear_1550_1580" x1="23.9432" y1="11.8104" x2="33.6822" y2="23.1624" gradientUnits="userSpaceOnUse">
<stop stop-color="#FFC100"/>
<stop offset="1" stop-color="#F1FC06"/>
</linearGradient>
<linearGradient id="paint9_linear_1550_1580" x1="43.4462" y1="16.9704" x2="43.4462" y2="19.9326" gradientUnits="userSpaceOnUse">
<stop stop-color="#FFD701"/>
<stop offset="1" stop-color="#FFE601"/>
</linearGradient>
<linearGradient id="paint10_linear_1550_1580" x1="9.23089" y1="22.9785" x2="13.4548" y2="43.32" gradientUnits="userSpaceOnUse">
<stop stop-color="#FFA300"/>
<stop offset="0.214" stop-color="#DEFF19"/>
<stop offset="0.464" stop-color="#A4FF53"/>
<stop offset="0.688" stop-color="#36FFC1"/>
<stop offset="0.865" stop-color="#00A0FF"/>
<stop offset="0.974" stop-color="#0064FF"/>
</linearGradient>
<linearGradient id="paint11_linear_1550_1580" x1="7.76852" y1="23.4795" x2="23.6199" y2="24.5595" gradientUnits="userSpaceOnUse">
<stop stop-color="#FF8A01"/>
<stop offset="1" stop-color="#FFDB00"/>
</linearGradient>
<linearGradient id="paint12_linear_1550_1580" x1="15.3336" y1="28.8467" x2="15.1454" y2="20.573" gradientUnits="userSpaceOnUse">
<stop stop-color="#DFFD18"/>
<stop offset="1" stop-color="#FDAD12"/>
</linearGradient>
<linearGradient id="paint13_linear_1550_1580" x1="20.0727" y1="40.4451" x2="14.2976" y2="46.0536" gradientUnits="userSpaceOnUse">
<stop stop-color="#14F3E6"/>
<stop offset="1" stop-color="#0040FF"/>
</linearGradient>
<linearGradient id="paint14_linear_1550_1580" x1="7.17588" y1="37.9226" x2="13.071" y2="41.7007" gradientUnits="userSpaceOnUse">
<stop stop-color="#09D3F3"/>
<stop offset="1" stop-color="#0001FC" stop-opacity="0"/>
</linearGradient>
<linearGradient id="paint15_linear_1550_1580" x1="19.5449" y1="25.0952" x2="23.7815" y2="42.6177" gradientUnits="userSpaceOnUse">
<stop stop-color="#FF9100"/>
<stop offset="0.314" stop-color="#D4FF23"/>
<stop offset="0.49" stop-color="#87FF70"/>
<stop offset="0.688" stop-color="#1CFFDB"/>
<stop offset="1" stop-color="#00D8FF"/>
</linearGradient>
<linearGradient id="paint16_linear_1550_1580" x1="6.82738" y1="22.8215" x2="8.66149" y2="25.9731" gradientUnits="userSpaceOnUse">
<stop stop-color="#FF4E01"/>
<stop offset="1" stop-color="#F4BB0C"/>
</linearGradient>
</defs>
</svg>
